!!!OTL: Die wiedergefundene Schwester (Suedeli - Ballade) Es kam ein betruebter Reiter daher,
!!!ARE: Europa, Mitteleuropa, Deutschland (), Provinz Sachsen
!!!YOR: 4, S. 34
!!    1879 gedruckt in Magdeburg
!!!SCT: Q0072Q
!!!YEM: Copyright 1995, estate of Helmut Schaffrath.
**kern
*ICvox
*Ivox
*M4/4
*k[b-]
*F:
{8a
8g
=1
4f
8.f
16f
8f
8g
8a
8b-
=2
4cc
8.cc
16cc
4cc}
{4dd
=3
4cc
8.b-
16b-
4b-
8cc
8b-
=4
8b-
8a
4a
4a}
{4cc
=5
4a
4g
4g
8f
8g
=6
4a
4a
4a}
{4cc
=7
4cc
4g
4g
8f
8g
=8
4a
4a
4a}
==
!!!AGN: Ballade, Entfuehrung, Adelige als Dienstmagd, Rueckkehr
!!!ONB: ESAC (Essen Associative Code) Database: BALLADE
!!!AMT: simple quadruple
!!!AIN: vox
!!!EED: Helmut Schaffrath
!!!EEV: 1.0
*-
